X:1
T:Title
%%score 1 { 2 | 3 }
L:1/8
Q:1/4=90
M:3/4
K:D
V:1 treble nm="Grand Piano, Soprano"
V:2 treble nm="Choir Pad, Bawardy, CMD"
V:3 bass 
V:1
 [FA]2 [FA]>[DF] [FA]2- | [FA][Ad] [Ge][Gc] [Fd]2 | [FA]2 [FB]3 [FB] | [EA][DF] [CE]4 | %4
w: By~Hubert~Platt~Main,~1902 * * *||||
 [EA]2 [FA]>[DF] [FA]2- | [FA][Ad] [Ge][Gc] [Fd]2 | [GB]2 [FA]3 [Fd] | [Gd][Gc] [Fd]4 | %8
w: ||||
 [Ad]2 [Gc]>[FB] [EA][CG] | [CF][CG] [=CA]4 | D2 [DB]3 [FA] | [EG][DF] [CE]4 | %12
w: ||||
 [CA]2 [DA]>[DF] [FA]2- | [FA][Ad] [Ge][Gc] [Fd]2 | [=FB]2 [^FA]3 [Fd] | [Gd][Gc] [Fd]4- | %16
w: ||||
 [Fd]4 z2 |] %17
w: |
V:2
 D2 D>A, D2- | DD CE D2 | D2 D3 D | A,A, A,4 | C2 D>A,[K:treble] D2- | DD CE D2 | %6
 D2 D3[K:bass] A, | EA, A,4 | D2[K:treble] E>D CB, | A,[K:bass]G, F,4 | =C2 B,3 C | B,^G, A,4 | %12
 G,2 F,>A,[K:treble] D2- | DD CE D2 | D2 D3[K:bass] A, | EA, A,4- | A,4 z2 |] %17
V:3
 D,2 D,>D, D,2- | D,F, A,A, D,2 | D,2 B,,3 B,, | C,D, A,,4 | A,,2 D,>D, D,2- | D,F, A,A, B,2 | %6
 G,2 A,4 | A,,A,, D,4 | F,2 A,>A, A,A,, | A,,A,, D,4 | F,2 G,3 D, | E,E, A,,4 | A,,2 D,>D, D,2- | %13
 D,F, A,A, B,2 | ^G,2 A,4 | A,,A,, D,4- | D,4 z2 |] %17

